public/img/tailwind.svg

<svg width="87" height="87" viewBox="0 0 87 87" fill="none" xmlns="http://www.w3.org/2000/svg">
<path d="M67.0625 34.4736C64.3439 33.5373 61.9443 31.8537 60.1388 29.6161C58.1488 27.1229 55.615 25.1179 52.7311 23.7545C49.8472 22.3911 46.6896 21.7054 43.5 21.7498C39.2093 21.4459 34.9616 22.7693 31.6028 25.4564C28.2439 28.1435 26.0204 31.9971 25.375 36.2498C26.6462 34.1228 28.5594 32.454 30.8393 31.4834C33.1192 30.5128 35.6483 30.2905 38.0625 30.8486C40.7765 31.8121 43.1722 33.5054 44.9862 35.7423C46.9871 38.2156 49.5258 40.1998 52.4091 41.5441C55.2923 42.8884 58.4443 43.5572 61.625 43.4998C65.9157 43.8037 70.1634 42.4803 73.5222 39.7932C76.8811 37.1061 79.1046 33.2525 79.75 28.9998C78.5019 31.1522 76.5948 32.8463 74.3102 33.8319C72.0256 34.8176 69.4847 35.0425 67.0625 34.4736ZM19.9375 52.5261C22.6561 53.4624 25.0557 55.1459 26.8612 57.3836C28.8512 59.8767 31.385 61.8817 34.2689 63.2451C37.1528 64.6085 40.3104 65.2942 43.5 65.2498C47.7907 65.5537 52.0384 64.2303 55.3972 61.5432C58.7561 58.8562 60.9796 55.0025 61.625 50.7498C60.3538 52.8768 58.4406 54.5457 56.1607 55.5163C53.8808 56.4868 51.3517 56.7091 48.9375 56.1511C46.2235 55.1875 43.8278 53.4942 42.0138 51.2573C40.0075 48.7902 37.4678 46.8103 34.5858 45.4666C31.7038 44.1229 28.5545 43.4504 25.375 43.4998C21.0843 43.1959 16.8366 44.5193 13.4778 47.2064C10.1189 49.8935 7.8954 53.7471 7.25 57.9998C8.49811 55.8474 10.4052 54.1533 12.6898 53.1677C14.9744 52.1821 17.5153 51.9571 19.9375 52.5261Z" fill="#EEEEEE"/>
</svg>

<svg xmlns="http://www.w3.org/2000/svg" width="87" height="87" fill="none" xmlns:v="https://vecta.io/nano"><path d="M67.063 34.474c-2.719-.936-5.118-2.62-6.924-4.857-1.99-2.493-4.524-4.498-7.408-5.862S46.69 21.705 43.5 21.75a17.11 17.11 0 0 0-18.125 14.5 11.71 11.71 0 0 1 12.688-5.401 15.66 15.66 0 0 1 6.924 4.894c2.001 2.473 4.54 4.458 7.423 5.802s6.035 2.013 9.216 1.956A17.11 17.11 0 0 0 79.75 29a11.6 11.6 0 0 1-12.687 5.474zM19.938 52.526c2.719.936 5.118 2.62 6.924 4.858 1.99 2.493 4.524 4.498 7.408 5.861s6.041 2.049 9.231 2.005a17.11 17.11 0 0 0 18.125-14.5 11.71 11.71 0 0 1-12.687 5.401 15.66 15.66 0 0 1-6.924-4.894c-2.006-2.467-4.546-4.447-7.428-5.791s-6.031-2.016-9.211-1.967A17.11 17.11 0 0 0 7.25 58a11.6 11.6 0 0 1 12.688-5.474z" fill="#eee"/></svg>
